svgs/regular/starfighter-twin-ion-engine-advanced.svg

<svg xmlns="http://www.w3.org/2000/svg" viewBox="0 0 640 512"><!--! Font Awesome Pro 6.4.2 by @fontawesome - https://fontawesome.com License - https://fontawesome.com/license (Commercial License) Copyright 2023 Fonticons, Inc. --><path d="M118.5 7.6c9-9.7 24.2-10.2 33.9-1.2s10.2 24.2 1.2 33.9L50.2 151.2c-1.4 1.5-2.2 3.4-2.2 5.5V195l137.9-26.3C214.4 124.9 263.8 96 320 96s105.6 28.9 134.1 72.7L592 195V156.6c0-2-.8-4-2.2-5.5L486.5 40.4c-9-9.7-8.5-24.9 1.2-33.9s24.9-8.5 33.9 1.2L624.9 118.4c9.7 10.4 15.1 24 15.1 38.2v47.5V224v64 19.9 47.5c0 14.2-5.4 27.8-15.1 38.2L521.5 504.4c-9 9.7-24.2 10.2-33.9 1.2s-10.2-24.2-1.2-33.9L589.8 360.8c1.4-1.5 2.2-3.4 2.2-5.5V317L454.1 343.3C425.6 387.1 376.2 416 320 416s-105.6-28.9-134.1-72.7L48 317v38.4c0 2 .8 4 2.2 5.5L153.5 471.6c9 9.7 8.5 24.9-1.2 33.9s-24.9 8.5-33.9-1.2L15.1 393.6C5.4 383.2 0 369.6 0 355.4V307.9 288 224 204.1 156.6c0-14.2 5.4-27.8 15.1-38.2L118.5 7.6zM48 268.1l115.7 22c-2.4-11-3.7-22.4-3.7-34.2s1.3-23.2 3.7-34.2L48 243.9v24.3zm428.3-46.3c2.4 11 3.7 22.4 3.7 34.2s-1.3 23.2-3.7 34.2l115.7-22V243.9l-115.7-22zM304 334.4c-10.2-2.1-19.7-6.1-28.1-11.7l-23 23c14.7 11 32.1 18.4 51.1 21.2V334.4zm-50.7-34.3c-5.6-8.4-9.6-17.9-11.7-28.1H209.1c2.7 19 10.2 36.4 21.2 51.1l23-23zM241.6 240c2.1-10.2 6.1-19.7 11.7-28.1l-23-23c-11 14.7-18.5 32.1-21.2 51.1h32.5zm34.3-50.7c8.4-5.6 17.9-9.6 28.1-11.7V145.1c-19 2.7-36.4 10.2-51.1 21.2l23 23zM336 366.9c19-2.7 36.4-10.2 51.1-21.2l-23-23c-8.4 5.6-17.9 9.6-28.1 11.7v32.5zM430.9 272H398.4c-2.1 10.2-6.1 19.7-11.7 28.1l23 23c11-14.7 18.4-32.1 21.2-51.1zm-32.5-32h32.5c-2.7-19-10.2-36.4-21.2-51.1l-23 23c5.6 8.4 9.6 17.9 11.7 28.1zM336 145.1v32.5c10.2 2.1 19.7 6.1 28.1 11.7l23-23c-14.7-11-32.1-18.4-51.1-21.2zM352 256c0-8.8-3.5-16.7-9.2-22.5l-.3-.3c-5.7-5.7-13.6-9.2-22.2-9.2h-.5c-8.7 .1-16.5 3.6-22.2 9.2l-.3 .3c-5.7 5.8-9.2 13.7-9.2 22.5c0 17.7 14.3 32 32 32s32-14.3 32-32z"/></svg>

<svg xmlns="http://www.w3.org/2000/svg" viewBox="0 0 640 512"><!--! Font Awesome Pro 6.1.1 by @fontawesome - https://fontawesome.com License - https://fontawesome.com/license (Commercial License) Copyright 2022 Fonticons, Inc. --><path d="M118.5 7.624C127.5-2.065 142.7-2.589 152.4 6.455C162.1 15.5 162.6 30.69 153.5 40.38L50.15 151.2C48.77 152.6 47.1 154.6 47.1 156.6V194.1L185.9 168.7C214.4 124.9 263.8 96 319.1 96C376.2 96 425.6 124.9 454.1 168.7L592 194.1V156.6C592 154.6 591.2 152.6 589.8 151.2L486.5 40.38C477.4 30.69 477.9 15.5 487.6 6.455C497.3-2.589 512.5-2.065 521.5 7.624L624.9 118.4C634.6 128.8 640 142.4 640 156.6V355.4C640 369.6 634.6 383.2 624.9 393.6L521.5 504.4C512.5 514.1 497.3 514.6 487.6 505.5C477.9 496.5 477.4 481.3 486.5 471.6L589.8 360.8C591.2 359.4 592 357.4 592 355.4V317L454.1 343.3C425.6 387.1 376.2 416 319.1 416C263.8 416 214.4 387.1 185.9 343.3L47.1 317V355.4C47.1 357.4 48.77 359.4 50.15 360.8L153.5 471.6C162.6 481.3 162.1 496.5 152.4 505.5C142.7 514.6 127.5 514.1 118.5 504.4L15.06 393.6C5.382 383.2 0 369.6 0 355.4V156.6C0 142.4 5.383 128.8 15.06 118.4L118.5 7.624zM48 268.1L163.7 290.2C161.3 279.2 160 267.7 160 256C160 244.3 161.3 232.8 163.7 221.8L48 243.9V268.1zM480 256C480 267.7 478.7 279.2 476.3 290.2L592 268.1V243.9L476.3 221.8C478.7 232.8 480 244.3 480 256V256zM275.9 322.7L252.9 345.7C267.6 356.7 285 364.2 304 366.9V334.4C293.8 332.3 284.3 328.3 275.9 322.7V322.7zM241.6 272H209.1C211.8 290.1 219.3 308.4 230.3 323.1L253.3 300.1C247.7 291.7 243.7 282.2 241.6 272V272zM253.3 211.9L230.3 188.9C219.3 203.6 211.8 221 209.1 240H241.6C243.7 229.8 247.7 220.3 253.3 211.9V211.9zM304 177.6V145.1C285 147.8 267.6 155.3 252.9 166.3L275.9 189.3C284.3 183.7 293.8 179.7 303.1 177.6L304 177.6zM336 366.9C354.1 364.2 372.4 356.7 387.1 345.7L364.1 322.7C355.7 328.3 346.2 332.3 336 334.4V366.9zM398.4 272C396.3 282.2 392.3 291.7 386.7 300.1L409.7 323.1C420.7 308.4 428.2 290.1 430.9 272L398.4 272zM430.9 240C428.2 221 420.7 203.6 409.7 188.9L386.7 211.9C392.3 220.3 396.3 229.8 398.4 240H430.9zM336 177.6C346.2 179.7 355.7 183.7 364.1 189.3L387.1 166.3C372.4 155.3 354.1 147.8 336 145.1L336 177.6zM342.8 233.5L342.5 233.2C336.8 227.6 328.9 224.1 320.2 224H319.8C311.1 224.1 303.2 227.6 297.5 233.2L297.2 233.5C291.5 239.3 288 247.2 288 256C288 273.7 302.3 288 320 288C337.7 288 352 273.7 352 256C352 247.2 348.5 239.3 342.8 233.5V233.5z"/></svg>
